X: 6
M: none
L: 1/8
K: G
dBGg e2dB | caaB A2Bc |\
dBGg e2dB | gddB G2 :|\
|: Bc |\
d>ed>B d>edB | gb-bag a2Bc |
d>ed>B gdcB | edcB A2Bc |\
dBGg e2dB | caaB A2Bc |\
dBGg e2dB | gddB G2 :|


